src/assets/svg/apple.svg

<svg width="80" height="80" viewBox="0 0 80 80" fill="none" xmlns="http://www.w3.org/2000/svg">
<g style="mix-blend-mode:luminosity" opacity="0.7">
<path d="M65.549 57.8754C64.5915 60.1114 63.4581 62.1696 62.1449 64.0619C60.3549 66.6416 58.8892 68.4272 57.7597 69.4188C56.0088 71.0464 54.1328 71.88 52.1239 71.9274C50.6817 71.9274 48.9425 71.5126 46.9179 70.6711C44.8868 69.8336 43.0201 69.4188 41.3134 69.4188C39.5233 69.4188 37.6036 69.8336 35.5501 70.6711C33.4935 71.5126 31.8368 71.9511 30.5701 71.9945C28.6437 72.0775 26.7235 71.2202 24.8068 69.4188C23.5835 68.3403 22.0534 66.4915 20.2204 63.8723C18.2537 61.0753 16.6368 57.832 15.3701 54.1343C14.0135 50.1404 13.3335 46.2728 13.3335 42.5285C13.3335 38.2395 14.2504 34.5402 16.0869 31.4403C17.5303 28.9503 19.4505 26.9861 21.8537 25.5442C24.2569 24.1022 26.8536 23.3674 29.6501 23.3204C31.1802 23.3204 33.1867 23.7988 35.6803 24.7391C38.1668 25.6824 39.7633 26.1608 40.4633 26.1608C40.9866 26.1608 42.7602 25.6014 45.7669 24.4862C48.6103 23.452 51.01 23.0238 52.9759 23.1924C58.303 23.627 62.3051 25.7496 64.9667 29.5737C60.2024 32.4915 57.8457 36.5783 57.8926 41.821C57.9356 45.9046 59.4012 49.3029 62.2817 52.001C63.5871 53.2533 65.0449 54.2212 66.6668 54.9086C66.3151 55.9397 65.9438 56.9273 65.549 57.8754ZM53.3315 9.28036C53.3315 12.4811 52.1747 15.4696 49.8687 18.2357C47.086 21.5241 43.7201 23.4243 40.0701 23.1245C40.0236 22.7405 39.9966 22.3364 39.9966 21.9117C39.9966 18.839 41.32 15.5506 43.6701 12.8619C44.8434 11.5005 46.3356 10.3686 48.1452 9.46564C49.9508 8.57615 51.6588 8.08424 53.2651 8C53.312 8.42789 53.3315 8.8558 53.3315 9.28032V9.28036Z" fill="#1E1E1E"/>
</g>
</svg>

<svg xmlns="http://www.w3.org/2000/svg" width="80" height="80" fill="none"><path fill="#1E1E1E" d="M65.549 57.875a34.902 34.902 0 0 1-3.404 6.187c-1.79 2.58-3.256 4.365-4.385 5.357-1.751 1.627-3.627 2.461-5.636 2.508-1.442 0-3.181-.414-5.206-1.256-2.031-.837-3.898-1.252-5.605-1.252-1.79 0-3.71.415-5.763 1.252-2.056.842-3.713 1.28-4.98 1.323-1.926.084-3.846-.774-5.763-2.575-1.223-1.079-2.754-2.927-4.587-5.547-1.966-2.797-3.583-6.04-4.85-9.738-1.356-3.994-2.036-7.861-2.036-11.605 0-4.29.916-7.989 2.753-11.089 1.443-2.49 3.364-4.454 5.767-5.896 2.403-1.442 5-2.177 7.796-2.224 1.53 0 3.537.479 6.03 1.42 2.487.942 4.083 1.42 4.783 1.42.524 0 2.297-.559 5.304-1.674 2.843-1.034 5.243-1.462 7.209-1.294 5.327.435 9.33 2.558 11.99 6.382-4.764 2.918-7.12 7.004-7.073 12.247.043 4.084 1.508 7.482 4.389 10.18a14.411 14.411 0 0 0 4.385 2.908 48.144 48.144 0 0 1-1.118 2.966ZM53.331 9.28c0 3.201-1.156 6.19-3.462 8.956-2.783 3.288-6.149 5.188-9.799 4.889a10.072 10.072 0 0 1-.073-1.213c0-3.073 1.323-6.361 3.673-9.05 1.173-1.361 2.666-2.493 4.475-3.396 1.806-.89 3.514-1.382 5.12-1.466.047.428.066.856.066 1.28Z" opacity=".7" style="mix-blend-mode:luminosity"/></svg>
